// @title W01-03
// @license CC BY-NC-SA 4.0 https://creativecommons.org/licenses/by-nc-sa/4.0/
// @by Hubert Sia
// @date Jan 17, 2026

// 03
setcps(130/60/4)

note("<c!2 g!2 a!2 g -- f!2 e!2 d!2 c -- g!2 f!2 e!2 d -- g!2 f!2 e!2 d -- c!2 g!2 a!2 g -- f!2 e!2 d!2 c --   >*4").sound("piano")  