// @title W01-04
// @license CC BY-NC-SA 4.0 https://creativecommons.org/licenses/by-nc-sa/4.0/
// @by Hubert Sia
// @date Jan 18, 2026

// 04
$: s("bd sd [~ bd] sd,hh*16, misc")
$: s("[bd sd]!2")
$: s ("<cp!2>*2")
$: s("sawtooth!2 square!5 triangle!6 sine!4")