// @title W01-05
// @license CC BY-NC-SA 4.0 https://creativecommons.org/licenses/by-nc-sa/4.0/
// @by Hubert Sia
// @date Jan 19, 2026

// 5
$: s("hh*16").gain("[.25 1]*4")

$: s("bd*4,[~ sd:1]*2")

$: n("<[c2 c3]*4 [bb1 bb2]*4 [f2 f3]*4 [eb2 eb3]*4>")
.sound("jazz").lpf(800)

$: s("<cp!3>")

$:s("<bd!5>*5")