// @title W06-01
// @license CC BY-NC-SA 4.0 https://creativecommons.org/licenses/by-nc-sa/4.0/
// @by Hubert Sia
// @date March 10, 2026


voronoi(9.213, -0.021, 4.24)
	.add(osc(1, 0.616, 1))
	.kaleid(21)
	.scale(0.658, 1, 2)
	.colorama()
	.out(o1);
src(o1)
	.mult(src(s0)
		.modulateRotate(o1, 46.125), -0.5)
	.modulateScale(osc(1.638)
		.modulateRotate(o0, .74))
	.out(o0);