// @title W06-01
// @license CC BY-NC-SA 4.0 https://creativecommons.org/licenses/by-nc-sa/4.0/
// @by Hubert Sia
// @date Feb 17, 2026

$: s("[bd <hh oh>]*2")
  .bank("tr909")
  .dec(.4)
  

$: n("< 1 1 3 2 5 5 3 1 2 2 1>*8")
  .scale("<C4 G2 D4>/4:major")
  .s("gm_piano")
  .lpf(300)
  .lpenv("<4 3 2>*4")

$: s("bd!4 [bd*4]!2 bd!2")
  .slow(2)
  .bank("dmx")

$: s("[~ sd]!2")
  .gain(0.75)
  .bank("akailinn")
