// @title W06-04
// @license CC BY-NC-SA 4.0 https://creativecommons.org/licenses/by-nc-sa/4.0/
// @by Hubert Sia
// @date Feb 22, 2026

setcps(130/60/4)

$: n("< c2 1 3 2>*8")
.scale("<G1 D2>/4:major")
.s("gm_piano").lpf(300).lpenv("<4 3 2>*4")


$: s("bd!4 [bd*4]!2 bd!2")
  .slow(2)
  .bank("dmx")

$: s("[~ sd]!2")
  .gain(0.75)
  .bank("akailinn")
